lib/brands/icons/google-tag-manager.svg

<svg xmlns="http://www.w3.org/2000/svg" fill="none" aria-hidden="true" viewBox="0 0 48 48"><g id="google-tag-manager-Icon"><g id="Group"><path id="Vector" fill="#8AB4F8" d="M26.782 38.6891L21.2275 33.2728L33.1565 21.0912L38.9073 26.7275L26.782 38.6891Z"/><path id="Vector_2" fill="#4285F4" d="M26.8061 14.7422L21.2716 9.09135L9.16998 21.0785C7.61001 22.6384 7.61001 25.1675 9.16998 26.7293L21.0898 38.7273L26.7261 33.4546L17.6444 23.9039L26.8061 14.7422Z"/><path id="Vector_3" fill="#8AB4F8" d="M38.8275 21.1712L26.8276 9.17135C25.2658 7.60955 22.7331 7.60955 21.1713 9.17135C19.6096 10.7331 19.6096 13.2658 21.1713 14.8276L33.1712 26.8275C34.733 28.3893 37.2657 28.3893 38.8275 26.8275C40.3893 25.2657 40.3893 22.733 38.8275 21.1712Z"/><path id="Vector_4" fill="#246FDB" d="M23.9081 40C26.067 40 27.8171 38.2499 27.8171 36.091C27.8171 33.9321 26.067 32.1819 23.9081 32.1819C21.7492 32.1819 19.999 33.9321 19.999 36.091C19.999 38.2499 21.7492 40 23.9081 40Z"/></g></g></svg>

<svg xmlns="http://www.w3.org/2000/svg" fill="none" aria-hidden="true" viewBox="0 0 48 48"><path fill="#8AB4F8" d="m26.782 38.69-5.555-5.417 11.93-12.182 5.75 5.636L26.782 38.69Z"/><path fill="#4285F4" d="m26.806 14.742-5.534-5.65L9.17 21.077a3.997 3.997 0 0 0 0 5.651l11.92 11.998 5.636-5.272-9.082-9.551 9.162-9.162Z"/><path fill="#8AB4F8" d="m38.828 21.171-12-12a4 4 0 0 0-5.657 5.657l12 12a4 4 0 0 0 5.657-5.657Z"/><path fill="#246FDB" d="M23.908 40a3.909 3.909 0 1 0 0-7.818 3.909 3.909 0 0 0 0 7.818Z"/></svg>
